common/src/main/resources/icons/actions/positions/topless.svg

<svg xmlns="http://www.w3.org/2000/svg" width="16" height="16" fill="#9FA8DA" data-big="true" viewBox="0 0 24 24"><path d="M15 5h2V3h-2m4 18h2v-2h-2m0-6h2v-2h-2m0-6h2V3h-2m0 14h2v-2h-2m-4 6h2v-2h-2m4-10h2V7h-2M3 21h2V3H3m4 2h2V3H7m0 18h2v-2H7m4-14h2V3h-2m0 18h2v-2h-2z"/><path d="M11 5h2V3h-2m4 2h2V3h-2m0 18h2v-2h-2m4 2h2V3h-2M3 9h2V7H3m0 10h2v-2H3m0-2h2v-2H3m8 10h2v-2h-2m-8 2h2v-2H3M7 5h2V3H7M3 5h2V3H3m4 18h2v-2H7z"/><path d="M5 15H3v2h2m-2 4h18v-2H3m2-8H3v2h2m14-4h2V7h-2m0-2h2V3h-2M5 7H3v2h2m14 8h2v-2h-2m0-2h2v-2h-2m-2-8h-2v2h2m-4-2h-2v2h2M5 3H3v2h2m4-2H7v2h2"/></svg>

<!--
  - The MIT License (MIT)
  -
  - Copyright (c) 2015-2024 Elior "Mallowigi" Boukhobza
  -
  - Permission is hereby granted, free of charge, to any person obtaining a copy
  - of this software and associated documentation files (the "Software"), to deal
  - in the Software without restriction, including without limitation the rights
  - to use, copy, modify, merge, publish, distribute, sublicense, and/or sell
  - copies of the Software, and to permit persons to whom the Software is
  - furnished to do so, subject to the following conditions:
  -
  - The above copyright notice and this permission notice shall be included in all
  - copies or substantial portions of the Software.
  -
  - THE SOFTWARE IS PROVIDED "AS IS", WITHOUT WARRANTY OF ANY KIND, EXPRESS OR
  - IMPLIED, INCLUDING BUT NOT LIMITED TO THE WARRANTIES OF MERCHANTABILITY,
  - FITNESS FOR A PARTICULAR PURPOSE AND NONINFRINGEMENT. IN NO EVENT SHALL THE
  - AUTHORS OR COPYRIGHT HOLDERS BE LIABLE FOR ANY CLAIM, DAMAGES OR OTHER
  - LIABILITY, WHETHER IN AN ACTION OF CONTRACT, TORT OR OTHERWISE, ARISING FROM,
  - OUT OF OR IN CONNECTION WITH THE SOFTWARE OR THE USE OR OTHER DEALINGS IN THE
  - SOFTWARE.
  -->


<svg data-big="true" xmlns="http://www.w3.org/2000/svg" version="1.1" width="16px" height="16px" fill="#9FA8DA"
     viewBox="0 0 24 24">
  <path
    d="M15,5H17V3H15M19,21H21V19H19M19,13H21V11H19M19,5H21V3H19M19,17H21V15H19M15,21H17V19H15M19,9H21V7H19M3,21H5V3H3M7,5H9V3H7M7,21H9V19H7M11,5H13V3H11M11,21H13V19H11V21Z"/>
  <path
    d="M11,5H13V3H11M15,5H17V3H15M15,21H17V19H15M19,21H21V3H19M3,9H5V7H3M3,17H5V15H3M3,13H5V11H3M11,21H13V19H11M3,21H5V19H3M7,5H9V3H7M3,5H5V3H3M7,21H9V19H7V21Z"/>
  <path
    d="M5,15H3V17H5M3,21H21V19H3M5,11H3V13H5M19,9H21V7H19M19,5H21V3H19M5,7H3V9H5M19,17H21V15H19M19,13H21V11H19M17,3H15V5H17M13,3H11V5H13M5,3H3V5H5M9,3H7V5H9"/>
</svg>
